!!!!SEGMENT: pl-wtm--r-409-m_moniuszko-stanislaw--wieczny-pokoj-lirnikowi.krn
!!!cenid: 18xx:2862
!!!COM: Moniuszko, Stanisław
!!!COM-rismID: pe30008351
!!!CDT: 1819/05/05-1872/06/04
!!!CNT: Polish
!!!OTL: Wieczny pokój lirnikowi
!!!PDT:
!!!AGN:
!!!SMS-siglum: PL-Wtm
!!!SMS-shelfmark: R 409/M
!!!SMS-shelfwork: W
!!!SMS-variant:
!!!SMS-altvar:
!!!NIFC-rismSourceID: 1001099425
!!!NIFC-islandoraID:
!!!URL-pdf-islandora:
!!!URL-scan:
!!!ONB-nifc:
!!!AIN: 1 piano 1 vox
!!!key:
**kern	**kern	**dynam	**kern	**text
*part2	*part2	*part2	*part1	*part1
*staff3	*staff2	*	*staff1	*staff1
*Ipiano	*Ipiano	*	*Ivox	*
*I"Piano	*I"Piano	*	*I"[Głos]	*
*clefF4	*clefG2	*	*clefG2	*
*k[b-e-]	*k[b-e-]	*	*k[b-e-]	*
*g:	*g:	*	*g:	*
*M4/4	*M4/4	*	*M4/4	*
*met(c)	*met(c)	*	*met(c)	*
=1	=1	=1	=1	=1
!	!	!LO:DY:rj	!	!
1r	(4g/	pp	1r	.
!	!LO:TX:b:t=ad libit.	!	!	!
.	16b-\LL	.	.	.
.	16dd\	.	.	.
.	16gg\	.	.	.
.	16aa\JJ	.	.	.
.	4.bb-\	.	.	.
.	8gg\	.	.	.
=2	=2	=2	=2	=2
1r	[4.ddd\	.	2r	.
.	32ddd\LLL]	.	.	.
.	32ccc\	.	.	.
.	32bb-\	.	.	.
.	32aa\JJJ	.	.	.
!	!	!	!LO:TX:a:i:t=ad libit	!
.	8gg\	.	4g/	Bo-
.	8r)	.	.	.
.	4r	.	8a/	-że
.	.	.	8b-/	Wszech-
=3	=3	=3	=3	=3
1r	1dd 1b- 1g	.	4.dd\	-moc-
.	.	.	8dd\	-ny,
.	.	.	8cc\	przed
.	.	.	8b-\	któ-
.	.	.	8cc\	-re-
.	.	.	8dd\	-go
!!LO:LB:g=original
=4	=4	=4	=4	=4
1r	1dd 1a 1f	.	4dd\	tro-
.	.	.	8a\	-nem
.	.	.	8r	.
.	.	.	4cc\	Za-
.	.	.	8b-\	-kwi-
.	.	.	8a\	-ta
=5	=5	=5	=5	=5
1r	1b- 1g 1e-	.	4.g/	buj-
.	.	.	8g/	-nie
.	.	.	8.g/	za-
.	.	.	16f#X/	-sług
.	.	.	8g/	ludz-
.	.	.	8a/	-kich
=6	=6	=6	=6	=6
*^	*^	*	*	*
*	*	*	*2\right	*	*	*
1rCC	[>1G	2dd/	2d\	.	4b-\	kłos,
.	.	.	.	.	8r	.
.	.	.	.	.	8b-\	do
.	.	4a/	2c\	.	4.a/	Cie-
.	.	[4d/	.	.	.	.
.	.	.	.	.	8f#X/	-bie,
!!LO:LB:g=original
=7	=7	=7	=7	=7	=7	=7
1rCC	1G]	4d/]	2B-\	.	4.g/	w Nie-
.	.	4g/	.	.	.	.
.	.	.	.	.	8b-/	-bo,
.	.	4f#X/	2c\	.	8b-/	z ser-
.	.	.	.	.	8a/	-cem
.	.	8g/L	.	.	8g/	roz-
.	.	8a/J	.	.	8f#X/	-ża-
=8	=8	=8	=8	=8	=8	=8
2G/	1r	2b-/	4B-\	.	4a/	-lo-
.	.	.	4d\	.	16g/	-ném,
.	.	.	.	.	16r	.
.	.	.	.	.	8dd\	za
4A/	.	4.cc/	4f\	.	4.cc\	bra-
4c/	.	.	4e-\	.	.	.
.	.	8a/	.	.	8a\	-tem
=9	=9	=9	=9	=9	=9	=9
2B-/	1r	2b-/	2d\	.	4.b-/	na-
.	.	.	.	.	8f/	-szym
*2\right	*	*	*	*	*	*
2e-\	.	2g/	2ryy	.	8g/	pod-
.	.	.	.	.	8a/	-no-
.	.	.	.	.	8b-\	-si-
.	.	.	.	.	8cc\	-my
*	*	*v	*v	*	*	*
!!LO:LB:g=original
=10	=10	=10	=10	=10	=10
1rAAA;<	2d\	2a 2f#X/	.	4dd\	głos,
.	.	.	.	8r	.
.	.	.	.	8dd\	do
.	2r;>	2r;	.	4.een;\	Cie-
.	.	.	.	8dd\	-bie,
=11	=11	=11	=11	=11	=11
1rAAA	1D 1GG	2g 2Bn/	.	4.dd\	Pa-
.	.	.	.	8bn\	-nie,
.	.	2f#X 2c/	.	8.b\	z ser-
.	.	.	.	16a\	-cem
.	.	.	.	8.cc\	roz-
.	.	.	.	16b\	-ża-
=12	=12	=12	=12	=12	=12
*	*	*	*	*2\right	*
1rCC	2G 2GG/	[2g 2Bn/	.	[2dd\	-lo-
.	2G 2En\	2g] 2A/	.	8dd\L]	.
.	.	.	.	8cc#X\J	.
.	.	.	.	8a/	-nem,
.	.	.	.	8cc#\	za
!!LO:PB:g=original
=13	=13	=13	=13	=13	=13
*	*	*^	*	*	*
1rAAA	2G 2D\	2.g/	(>4Bn\	.	(4.dd\	bra-
.	.	.	4B-X\	.	.	.
.	.	.	.	.	8g/)	-tem
.	2D\	.	4c\)	.	8b-X/	pod-
.	.	.	.	.	8a/	-no-
.	.	4f#X;/	4d\	.	8.cc;\	-sie-
.	.	.	.	.	32b-\LLL	-my
.	.	.	.	.	32a\JJJ	.
*	*	*v	*v	*	*	*
=14	=14	=14	=14	=14	=14
!	!	!LO:TX:b:t=ad libit&colon;	!	!	!
1rAAA	[>2G\	(4g/	.	4g/	głos!
.	.	16b-\LL	.	4r	.
.	.	16dd\	.	.	.
.	.	16gg\	.	.	.
.	.	16bb-\JJ	.	.	.
.	8G\]	4.ddd\	.	2r	.
.	8rA	.	.	.	.
.	4rA	.	.	.	.
.	.	8bb-\	.	.	.
=15	=15	=15	=15	=15	=15
*	*	*^	*	*	*
2r	2ryy	[4eee-\	2ryy	.	2r	.
*	*	*Xtuplet	*	*	*	*
.	.	24eee-\LL]	.	.	.	.
.	.	24ddd\	.	.	.	.
.	.	24bb-\	.	.	.	.
.	.	24gg\	.	.	.	.
.	.	24dd\	.	.	.	.
*ped	*	*	*	*	*	*
.	.	24b-\JJ)	.	.	.	.
!	!	!LO:TX:b:t=a tempo	!	!LO:DY:b=2	!LO:TX:a:t=a tempo.	!
2B-/	2E-\	4g/	2g 2e-\	pp	4g/	On
.	.	4r	.	.	8g/	z łez
.	.	.	.	.	8g/	i
=16	=16	=16	=16	=16	=16	=16
2B-/	2D\	2f/	2ryy	.	4b-\	pieś-
.	.	.	.	.	8b-\	-ni
.	.	.	.	.	8b-\	plótł
2F/	2C\	2f/	2e-\	.	4cc\	wie-
.	.	.	.	.	8b-\	-niec
.	.	.	.	.	8a\	o-
!!LO:LB:g=original
=17	=17	=17	=17	=17	=17	=17
4F/	2BB-\	2f/	2d\	.	4b-\	-fiar-
2B-/	.	.	.	.	8f/	-ny
.	.	.	.	.	8r	.
.	2E-\	2g/	2e-\	.	4g/	pó-
4c/	.	.	.	.	8g/	-ki
.	.	.	.	.	8g/	star-
=18	=18	=18	=18	=18	=18	=18
4d/	2D\	2b-/	2f\	.	4b-\	-czy-
4B-/	.	.	.	.	8b-\	-ło
.	.	.	.	.	8b-\	tchu
2F/	2C\	2a/	2e-\	.	4ee-^\	w pier-
.	.	.	.	.	8dd\	-si
.	.	.	.	.	8cc\	i
*v	*v	*	*	*	*	*
=19	=19	=19	=19	=19	=19
1F 1BB-	4b-/	2d\	.	4dd\	sił;
.	4dd/	.	.	8r	.
.	.	.	.	8dd\	on
.	4cc/	2e-\	.	(4.ee-\	kar-
.	4f/	.	.	.	.
.	.	.	.	8a/)	-mił
!!LO:LB:g=original
=20	=20	=20	=20	=20	=20
1F 1BB-	2b-/	2d\	.	4.b-\	bra-
.	.	.	.	8dd\	-ci
.	4a/	2e-\	.	8dd\	Oj-
.	.	.	.	8cc\	-czy-
.	8cc/L	.	.	8b-\	-sté-
.	8f/J	.	.	8a\	-mi
=21	=21	=21	=21	=21	=21
4BB-/	2b-/	2d\	.	4g/	ziar-
4B-\	.	.	.	16f/	-ny
.	.	.	.	16r	.
.	.	.	.	8dd\	i
2A 2F\	2cc/	2f\	.	(4.ff\	szcze-
.	.	.	.	8cc\)	-rem
=22	=22	=22	=22	=22	=22
2G 2C\	2cc/	4en\	.	4.cc\	ser-
.	.	4e-X\	.	.	.
.	.	.	.	8cc\	-cem
2G\	2b-/	2d\	.	8dd\	I-
.	.	.	.	8cc\	-mię
.	.	.	.	8b-\	Two-
.	.	.	.	8cc\	-je
*	*v	*v	*	*	*
=23	=23	=23	=23	=23
*^	*	*	*	*
2A 2F#X 2D\	1r	4d/	.	2dd\	czcił.
.	.	16f#X/LL	.	.	.
.	.	16a/	.	.	.
.	.	16dd/	.	.	.
.	.	16ff/JJ	.	.	.
2r	.	4.aa\	.	2r	.
.	.	8ff\	.	.	.
*v	*v	*	*	*	*
!!LO:LB:g=original
=24	=24	=24	=24	=24
1r	[4.ddd\	.	2r	.
.	32ddd\LLL]	.	.	.
.	32ccc\	.	.	.
.	32bb-\	.	.	.
.	32aa\JJJ	.	.	.
.	(8.gg\L	.	4g/	Jesz-
.	16ff#X\Jk	.	.	.
.	16ffn'\LL	.	8a/	-cze
.	16ee-X'\	.	.	.
.	16dd'\	.	8b-/	tej
.	16b-'\JJ)	.	.	.
=25	=25	=25	=25	=25
*^	*	*	*	*
1rCC	1B- 1G	1g 1d	.	4.dd\	pie-
.	.	.	.	8dd\	-śni
.	.	.	.	8cc\	brzmią
.	.	.	.	8b-\	u-
.	.	.	.	8cc\	-ro-
.	.	.	.	8dd\	-cze
=26	=26	=26	=26	=26	=26
1rCC	1A 1F	1a 1d	.	4dd\	to-
.	.	.	.	8a/	-ny
.	.	.	.	8r	.
.	.	.	.	4cc\	wtó-
.	.	.	.	8b-\	-rzy
.	.	.	.	8a\	jej,
*v	*v	*	*	*	*
!!LO:PB:g=original
=27	=27	=27	=27	=27
*	*^	*	*	*
1E-	4b-/	1g	.	4.g/	chó-
.	4bn/	.	.	.	.
.	.	.	.	8g/	-rem,
.	4cc/	.	.	8.g/	ca-
.	.	.	.	16f#X/	-ły
.	4cc#X/	.	.	8g/	pol-
.	.	.	.	8a/	-ski
=28	=28	=28	=28	=28	=28
*^	*	*	*	*	*
2G/	2GG\	2dd/	2b-\	.	4b-/	kraj;
.	.	.	.	.	8r	.
.	.	.	.	.	8b-/	bądź
4F#X/	2C\	(4.ee-/	2e-\	.	4.a^>/	nią,
4A/	.	.	.	.	.	.
.	.	8f#X/)	.	.	8f#X/	o,
=29	=29	=29	=29	=29	=29	=29
2G/	1C	2.g/	1e-	.	4.g/	Pa-
.	.	.	.	.	8b-/	-nie,
2Fn/	.	.	.	.	8.b-^>/	wiecz-
.	.	.	.	.	16a/	-nie
.	.	4a/	.	.	8g/	po-
.	.	.	.	.	8fn/	-chwa-
!!LO:LB:g=original
=30	=30	=30	=30	=30	=30	=30
2G/	1BB-	2b-/	1e-	.	4b-\	-lo-
.	.	.	.	.	16b-\	-ny
.	.	.	.	.	16r	.
.	.	.	.	.	8dd\	i
4G-X/	.	2a/	.	.	4.cc^\	wiecz-
[4F/	.	.	.	.	.	.
.	.	.	.	.	8a/	-ny
=31	=31	=31	=31	=31	=31	=31
4F/]	2BB-\	2b-/	2d\	.	4.b-\	po-
2B-/	.	.	.	.	.	.
.	.	.	.	.	8f/	-kój
.	2E-\	2g/	2e-\	.	8g/	lir-
.	.	.	.	.	8a/	-ni-
(>4G/	.	.	.	.	8b-\	-ko-
.	.	.	.	.	8cc\	-wi
*	*	*v	*v	*	*	*
=32	=32	=32	=32	=32	=32
2D\	2d>\)	2a 2f#X/	.	4dd\	daj,
.	.	.	.	8r	.
.	.	.	.	8dd\	bądź
2r;	2ryy	2r;	.	4.een;\	nią,
.	.	.	.	8dd\	o,
*v	*v	*	*	*	*
!!LO:LB:g=original
=33	=33	=33	=33	=33
1D 1GG	2bn 2g 2Bn/	.	(4.gg 4.dd\	Pa-
.	.	.	8bn\)	-nie,
.	2d 2c/	.	8b\	wiecz-
.	.	.	8a\	-nie
.	.	.	8.cc\	po-
.	.	.	16b\	-chwa-
=34	=34	=34	=34	=34
*	*^	*	*	*
[2G\	1g	2d 2Bn\	.	[2dd\	-lo-
2G] 2En\	.	2c#X\	.	8dd\]	.
.	.	.	.	8cc#X\	-ny,
.	.	.	.	8a\	wiecz-
.	.	.	.	8cc#\	-ny
=35	=35	=35	=35	=35	=35
*^	*	*	*	*	*
4Bn/	1D	2.g/	[2d\	.	4.dd\	po-
4B-X/	.	.	.	.	.	.
.	.	.	.	.	8g/	-kój
4G/	.	.	8d\L]	.	8b-X\	lir-
.	.	.	(8c\J	.	8a\	-ni-
4A/	.	4f#X/	8.e-\L)	.	8.cc;\	-ko-
.	.	.	32d\LL	.	32b-/LLL	-wi
.	.	.	32c\JJJ	.	32a/JJJ	.
*v	*v	*	*	*	*	*
*	*v	*v	*	*	*
!!LO:LB:g=original
=36	=36	=36	=36	=36
[1B- [1D [>1GG	2.g/	.	2g/	daj!..
.	.	.	2r	.
.	(16b-\LL	.	.	.
.	16dd\	.	.	.
.	16gg\	.	.	.
.	16bb-\JJ	.	.	.
=37	=37	=37	=37	=37
*^	*	*	*	*
2.B-] 2.D/] 2.GG/]	2.ryy	4.ddd\	.	1r	.
.	.	32ccc\LLL	.	.	.
.	.	32bb-\	.	.	.
.	.	32aa\	.	.	.
.	.	32gg\JJJ)	.	.	.
.	.	(2eee-\	.	.	.
4B- 4D/	4GG\	.	.	.	.
*v	*v	*	*	*	*
=38	=38	=38	=38	=38
1G 1D 1BB- 1GG;	4ggg\)	.	1r;	.
.	4r	.	.	.
!	!LO:TX:b:t=Fine	!	!	!
.	2r;	.	.	.
==	==	==	==	==
*-	*-	*-	*-	*-
!!!system-decoration: s1{(s2,s3)}
!!!RDF**kern: > = above
!!!RDF**kern: < = below
!!!ENC: Marta Lawrence
!!!END: 2021-08-25
!!!ENC: Tomasz Grochalski
!!!END: 2021-08-06
!!!YEC: Copyright 2022 Narodowy Instytut Fryderyka Chopina (https://polishscores.org)
!!!YEM: Licence CC BY 4.0 (https://creativecommons.org/licenses/by/4.0)
